docs/static/img/logos/statsd.svg

<?xml version="1.0" encoding="UTF-8"?>
<svg width="64px" height="64px" viewBox="0 0 64 64" version="1.1" xmlns="http://www.w3.org/2000/svg" xmlns:xlink="http://www.w3.org/1999/xlink">
    <!-- Generator: Sketch 64 (93537) - https://sketch.com -->
    <title>Icon</title>
    <desc>Created with Sketch.</desc>
    <g id="Icon" stroke="none" stroke-width="1" fill="none" fill-rule="evenodd">
        <g id="meter" fill="#000000" fill-rule="nonzero">
            <path d="M32,30.125 C30.9655,30.125 30.125,30.9655 30.125,32 C30.125,33.0345 30.9655,33.875 32,33.875 C33.0345,33.875 33.875,33.0345 33.875,32 C33.875,30.9655 33.0345,30.125 32,30.125 Z" id="Path"></path>
            <path d="M32,0 C14.42375,0 0,14.42375 0,32 C0,49.57625 14.42375,64 32,64 C49.57625,64 64,49.57625 64,32 C64,14.42375 49.57625,0 32,0 Z M37.625,52.625 L26.375,52.625 C25.338625,52.625 24.5,51.786375 24.5,50.75 C24.5,49.713625 25.338625,48.875 26.375,48.875 L37.625,48.875 C38.661375,48.875 39.5,49.713625 39.5,50.75 C39.5,51.786375 38.661375,52.625 37.625,52.625 Z M39.077,27.574375 L37.06125,29.590125 C37.412125,30.3235 37.625,31.134125 37.625,32 C37.625,35.10175 35.10175,37.625 32,37.625 C28.89825,37.625 26.375,35.10175 26.375,32 C26.375,28.89825 28.89825,26.375 32,26.375 C32.865875,26.375 33.6765,26.587875 34.409875,26.93875 L36.425625,24.923 C37.158,24.190625 38.344625,24.190625 39.077,24.923 C39.809375,25.655375 39.8095,26.841875 39.077,27.574375 Z M49.269375,49.185125 C49.255,49.2005 49.250625,49.220875 49.23575,49.23575 C48.50325,49.96825 47.316875,49.96825 46.584375,49.23575 L46.5825,49.233875 C46.580875,49.23225 46.578625,49.231875 46.577,49.23025 C46.575375,49.228625 46.575,49.226375 46.573375,49.22475 L41.281625,43.933 C40.54925,43.200625 40.54925,42.014 41.281625,41.281625 C42.014,40.54925 43.200625,40.54925 43.933,41.281625 L47.774375,45.123 C50.456875,41.907875 52.063375,38.036125 52.4415,33.875 L47,33.875 C45.963625,33.875 45.125,33.036375 45.125,32 C45.125,30.963625 45.963625,30.125 47,30.125 L52.53,30.125 C52.141875,25.844625 50.447125,21.937875 47.83975,18.811625 L43.933,22.718375 C43.2005,23.450875 42.014125,23.450875 41.281625,22.718375 C40.54925,21.986 40.54925,20.799375 41.281625,20.067 L45.188375,16.16025 C42.062125,13.55275 38.155375,11.858125 33.875,11.47 L33.875,17 C33.875,18.036375 33.036375,18.875 32,18.875 C30.963625,18.875 30.125,18.036375 30.125,17 L30.125,11.47 C25.844625,11.858125 21.937875,13.552875 18.811625,16.16025 L22.718375,20.067 C23.45075,20.799375 23.45075,21.986 22.718375,22.718375 C21.985875,23.450875 20.7995,23.450875 20.067,22.718375 L16.16025,18.811625 C13.55275,21.937875 11.858125,25.844625 11.47,30.125 L17,30.125 C18.036375,30.125 18.875,30.963625 18.875,32 C18.875,33.036375 18.036375,33.875 17,33.875 L11.558625,33.875 C11.93675,38.036125 13.54325,41.907875 16.22575,45.123 L20.067125,41.281625 C20.7995,40.54925 21.986125,40.54925 22.7185,41.281625 C23.450875,42.014 23.450875,43.200625 22.7185,43.933 L17.42675,49.22475 C17.425125,49.226375 17.42475,49.228625 17.423125,49.23025 C17.4215,49.231875 17.41925,49.23225 17.417625,49.233875 L17.41575,49.23575 C16.68325,49.96825 15.496875,49.96825 14.764375,49.23575 C14.7495,49.220875 14.745125,49.2005 14.73075,49.185125 C10.149125,44.581125 7.625,38.48175 7.625,32 C7.625,18.59525 18.534,7.625 32,7.625 C45.40475,7.625 56.375,18.534 56.375,32 C56.375,38.48175 53.850875,44.581125 49.269375,49.185125 Z" id="Shape"></path>
        </g>
    </g>
</svg>

<svg width="64" height="64" viewBox="0 0 64 64" xmlns="http://www.w3.org/2000/svg">
  <g fill="#000000" fill-rule="nonzero">
    <path d="M32 30.125c-1.035 0-1.875.84-1.875 1.875 0 1.035.84 1.875 1.875 1.875 1.035 0 1.875-.84 1.875-1.875 0-1.035-.84-1.875-1.875-1.875z"/>
    <path d="M32 0C14.424 0 0 14.424 0 32s14.424 32 32 32 32-14.424 32-32S49.576 0 32 0zm5.625 52.625h-11.25a1.874 1.874 0 110-3.75h11.25a1.874 1.874 0 110 3.75zm1.452-25.05l-2.016 2.015a5.56 5.56 0 01.564 2.41A5.631 5.631 0 0132 37.625 5.631 5.631 0 0126.375 32 5.631 5.631 0 0132 26.375a5.56 5.56 0 012.41.564l2.016-2.016a1.874 1.874 0 112.651 2.651zm10.192 21.61c-.014.015-.018.036-.033.05a1.874 1.874 0 01-2.652 0l-.002-.001-.005-.004-.004-.005-5.291-5.292a1.874 1.874 0 112.651-2.651l3.841 3.841a20.312 20.312 0 004.667-11.248H47a1.874 1.874 0 110-3.75h5.53a20.526 20.526 0 00-4.69-11.313l-3.907 3.906a1.874 1.874 0 11-2.651-2.651l3.906-3.907a20.526 20.526 0 00-11.313-4.69V17a1.874 1.874 0 11-3.75 0v-5.53a20.526 20.526 0 00-11.313 4.69l3.906 3.907a1.874 1.874 0 11-2.651 2.651l-3.907-3.906a20.526 20.526 0 00-4.69 11.313H17a1.874 1.874 0 110 3.75h-5.441a20.312 20.312 0 004.667 11.248l3.841-3.841a1.874 1.874 0 112.651 2.651l-5.291 5.292-.004.005-.005.004-.002.002a1.874 1.874 0 01-2.652 0c-.014-.015-.019-.035-.033-.05C10.149 44.58 7.625 38.481 7.625 32 7.625 18.595 18.534 7.625 32 7.625c13.405 0 24.375 10.909 24.375 24.375 0 6.482-2.524 12.581-7.106 17.185z"/>
  </g>
</svg>
